src/pos-icons/home-outline.svg

<svg height="24" viewBox="0 0 24 24" width="24" xmlns="http://www.w3.org/2000/svg"><path d="m12 5.69 5 4.5v7.81h-2v-6h-6v6h-2v-7.81zm0-2.69-10 9h3v8h6v-6h2v6h6v-8h3z"/></svg>

<?xml version="1.0" encoding="UTF-8"?><!DOCTYPE svg PUBLIC "-//W3C//DTD SVG 1.1//EN" "http://www.w3.org/Graphics/SVG/1.1/DTD/svg11.dtd"><svg xmlns="http://www.w3.org/2000/svg" xmlns:xlink="http://www.w3.org/1999/xlink" version="1.1" id="mdi-home-outline" width="24" height="24" viewBox="0 0 24 24"><path d="M12 5.69L17 10.19V18H15V12H9V18H7V10.19L12 5.69M12 3L2 12H5V20H11V14H13V20H19V12H22L12 3Z" /></svg>
